_includes/icons/ios-firewall.svg

<svg fill="#666" height="50" viewBox="0 0 50 50" width="50" xmlns="http://www.w3.org/2000/svg"><path d="m19.8125 0c-.324219.0546875-.601562.269531-.738281.570313-.136719.296875-.117188.648437.050781.929687 1.53125 2.761719 1.941406 5.109375 1.84375 6.84375s-.804687 2.824219-1.125 3.03125c-.230469.148438-.304687.136719-.5625.09375-.257812-.042969-.652344-.191406-1.15625-.375-1.003906-.371094-2.566406-.75-4.3125.125-.269531.136719-.464844.390625-.523437.691406-.0625.296875.015625.605469.210937.839844.320313.375.695313 1.175781.875 1.96875.179688.792969.15625 1.585938-.03125 2-.34375.757813-2.9375 2.273438-2.9375 6.5625 0 1.460938.214844 2.988281 1.15625 4.71875h-9.5625c-1.644531 0-3 1.355469-3 3v6c0 .765625.300781 1.46875.78125 2-.480469.53125-.78125 1.234375-.78125 2v6c0 1.644531 1.355469 3 3 3h28c.765625 0 1.46875-.300781 2-.78125.53125.480469 1.234375.78125 2 .78125h12c1.644531 0 3-1.355469 3-3v-6c0-.765625-.300781-1.46875-.78125-2 .480469-.53125.78125-1.234375.78125-2v-6c0-1.644531-1.355469-3-3-3h-8.28125c.644531-2.863281-.210937-5.027344-1.3125-6.53125-.632812-.867187-1.324219-1.542969-1.78125-2.125s-.632812-.992187-.625-1.3125c.03125-1.230469.964844-3.167969 1.0625-5.28125.050781-1.054687-.179687-2.210937-.9375-3.21875-.757812-1.007812-1.976562-1.824219-3.78125-2.46875-.332031-.128906-.710937-.066406-.988281.160156-.277344.222657-.414063.582032-.355469.933594.1875 1.257813.15625 2.417969-.0625 3.0625-.109375.324219-.25.492188-.34375.5625-.09375.070313-.167969.101563-.4375.0625-.585937-.082031-.46875-.097656-.5-.1875s-.042969-.558594.0625-1.21875c.214844-1.324219.671875-3.414062-.40625-5.59375-1.652344-3.332031-5.28125-4.84375-8.3125-4.84375-.03125 0-.0625 0-.09375 0s-.0625 0-.09375 0zm1.8125 2.40625c1.949219.433594 3.949219 1.417969 4.90625 3.34375.753906 1.527344.445313 2.960938.21875 4.375-.113281.707031-.277344 1.398438 0 2.1875.277344.789063 1.140625 1.390625 2.125 1.53125.6875.097656 1.386719-.082031 1.90625-.46875s.835938-.917969 1.03125-1.5c.230469-.675781.289063-1.453125.28125-2.25.652344.371094 1.160156.726563 1.4375 1.09375.449219.59375.566406 1.195313.53125 1.9375-.070312 1.484375-1.015625 3.339844-1.0625 5.3125-.023437 1.042969.507813 1.882813 1.0625 2.59375.554688.710938 1.1875 1.371094 1.71875 2.09375.980469 1.335938 1.671875 2.777344.90625 5.34375h-4.78125c.308594-1.171875.382813-2.34375.09375-3.4375-.402344-1.53125-1.46875-2.855469-3.0625-3.84375-.355469-.214844-.808594-.183594-1.132812.070313-.324219.257812-.460938.691406-.335938 1.085937.25.769531.152344 1.507813-.0625 1.96875-.214844.460938-.449219.65625-.90625.65625-.179687 0-.355469-.152344-.53125-.59375s-.140625-1.066406-.0625-1.21875c1.273438-2.5 1.511719-4.375 1.09375-5.84375s-1.449219-2.332031-2.21875-2.9375c-.210937-.171875-.480469-.25-.75-.21875-.273437.039063-.519531.1875-.679687.410156-.160157.226563-.21875.507813-.164063.777344.234375 1.132813.101563 1.894531-.21875 2.59375-.320312.699219-.875 1.339844-1.53125 2.0625-1.3125 1.441406-3.0625 3.277344-3.0625 6.34375 0 .265625.015625 1.109375.3125 2.15625-.640625.070313-1.230469.335938-1.6875.75-.53125-.480469-1.234375-.78125-2-.78125h-.0625c-1.378906-1.910156-1.53125-3.109375-1.53125-4.71875 0-3.539062 1.816406-3.691406 2.75-5.75.46875-1.042969.433594-2.207031.1875-3.28125-.128906-.570312-.445312-1-.6875-1.5.625-.09375 1.175781-.003906 1.78125.21875.445313.164063.90625.371094 1.5.46875s1.359375.007813 2-.40625c1.226563-.792969 1.90625-2.398437 2.03125-4.5625.097656-1.6875-.402344-3.804687-1.34375-6.0625zm3.40625 14.9375c.007813.023438.023438.039063.03125.0625.238281.839844.203125 2.136719-.9375 4.375-.011719 0-.019531 0-.03125 0-.464844.921875-.363281 1.933594 0 2.84375s1.191406 1.875 2.40625 1.875c1.230469 0 2.246094-.804687 2.71875-1.8125.125-.265625.152344-.582031.21875-.875.289063.402344.507813.835938.625 1.28125.222656.847656.132813 1.820313-.25 2.90625h-9c-.414062-1.027344-.4375-1.800781-.4375-2.125 0-2.34375 1.179688-3.515625 2.53125-5 .675781-.742187 1.398438-1.550781 1.875-2.59375.128906-.285156.167969-.617187.25-.9375zm-22.03125 12.65625h12c.566406 0 1 .433594 1 1v6c0 .566406-.433594 1-1 1h-12c-.566406 0-1-.433594-1-1v-6c0-.566406.433594-1 1-1zm16 0h18.125c.191406.058594.402344.058594.59375 0h9.28125c.566406 0 1 .433594 1 1v6c0 .566406-.433594 1-1 1h-28c-.566406 0-1-.433594-1-1v-6c0-.566406.433594-1 1-1zm-16 10h28c.566406 0 1 .433594 1 1v6c0 .566406-.433594 1-1 1h-28c-.566406 0-1-.433594-1-1v-6c0-.566406.433594-1 1-1zm32 0h12c.566406 0 1 .433594 1 1v6c0 .566406-.433594 1-1 1h-12c-.566406 0-1-.433594-1-1v-6c0-.566406.433594-1 1-1z"/></svg>

<svg xmlns="http://www.w3.org/2000/svg" viewBox="0 0 50 50" width="50" height="50" fill="#666"><path d="M 19.8125 0 C 19.488281 0.0546875 19.210938 0.269531 19.074219 0.570313 C 18.9375 0.867188 18.957031 1.21875 19.125 1.5 C 20.65625 4.261719 21.066406 6.609375 20.96875 8.34375 C 20.871094 10.078125 20.164063 11.167969 19.84375 11.375 C 19.613281 11.523438 19.539063 11.511719 19.28125 11.46875 C 19.023438 11.425781 18.628906 11.277344 18.125 11.09375 C 17.121094 10.722656 15.558594 10.34375 13.8125 11.21875 C 13.542969 11.355469 13.347656 11.609375 13.289063 11.910156 C 13.226563 12.207031 13.304688 12.515625 13.5 12.75 C 13.820313 13.125 14.195313 13.925781 14.375 14.71875 C 14.554688 15.511719 14.53125 16.304688 14.34375 16.71875 C 14 17.476563 11.40625 18.992188 11.40625 23.28125 C 11.40625 24.742188 11.621094 26.269531 12.5625 28 L 3 28 C 1.355469 28 0 29.355469 0 31 L 0 37 C 0 37.765625 0.300781 38.46875 0.78125 39 C 0.300781 39.53125 0 40.234375 0 41 L 0 47 C 0 48.644531 1.355469 50 3 50 L 31 50 C 31.765625 50 32.46875 49.699219 33 49.21875 C 33.53125 49.699219 34.234375 50 35 50 L 47 50 C 48.644531 50 50 48.644531 50 47 L 50 41 C 50 40.234375 49.699219 39.53125 49.21875 39 C 49.699219 38.46875 50 37.765625 50 37 L 50 31 C 50 29.355469 48.644531 28 47 28 L 38.71875 28 C 39.363281 25.136719 38.507813 22.972656 37.40625 21.46875 C 36.773438 20.601563 36.082031 19.925781 35.625 19.34375 C 35.167969 18.761719 34.992188 18.351563 35 18.03125 C 35.03125 16.800781 35.964844 14.863281 36.0625 12.75 C 36.113281 11.695313 35.882813 10.539063 35.125 9.53125 C 34.367188 8.523438 33.148438 7.707031 31.34375 7.0625 C 31.011719 6.933594 30.632813 6.996094 30.355469 7.222656 C 30.078125 7.445313 29.941406 7.804688 30 8.15625 C 30.1875 9.414063 30.15625 10.574219 29.9375 11.21875 C 29.828125 11.542969 29.6875 11.710938 29.59375 11.78125 C 29.5 11.851563 29.425781 11.882813 29.15625 11.84375 C 28.570313 11.761719 28.6875 11.746094 28.65625 11.65625 C 28.625 11.566406 28.613281 11.097656 28.71875 10.4375 C 28.933594 9.113281 29.390625 7.023438 28.3125 4.84375 C 26.660156 1.511719 23.03125 0 20 0 C 19.96875 0 19.9375 0 19.90625 0 C 19.875 0 19.84375 0 19.8125 0 Z M 21.625 2.40625 C 23.574219 2.839844 25.574219 3.824219 26.53125 5.75 C 27.285156 7.277344 26.976563 8.710938 26.75 10.125 C 26.636719 10.832031 26.472656 11.523438 26.75 12.3125 C 27.027344 13.101563 27.890625 13.703125 28.875 13.84375 C 29.5625 13.941406 30.261719 13.761719 30.78125 13.375 C 31.300781 12.988281 31.617188 12.457031 31.8125 11.875 C 32.042969 11.199219 32.101563 10.421875 32.09375 9.625 C 32.746094 9.996094 33.253906 10.351563 33.53125 10.71875 C 33.980469 11.3125 34.097656 11.914063 34.0625 12.65625 C 33.992188 14.140625 33.046875 15.996094 33 17.96875 C 32.976563 19.011719 33.507813 19.851563 34.0625 20.5625 C 34.617188 21.273438 35.25 21.933594 35.78125 22.65625 C 36.761719 23.992188 37.453125 25.433594 36.6875 28 L 31.90625 28 C 32.214844 26.828125 32.289063 25.65625 32 24.5625 C 31.597656 23.03125 30.53125 21.707031 28.9375 20.71875 C 28.582031 20.503906 28.128906 20.535156 27.804688 20.789063 C 27.480469 21.046875 27.34375 21.480469 27.46875 21.875 C 27.71875 22.644531 27.621094 23.382813 27.40625 23.84375 C 27.191406 24.304688 26.957031 24.5 26.5 24.5 C 26.320313 24.5 26.144531 24.347656 25.96875 23.90625 C 25.792969 23.464844 25.828125 22.839844 25.90625 22.6875 C 27.179688 20.1875 27.417969 18.3125 27 16.84375 C 26.582031 15.375 25.550781 14.511719 24.78125 13.90625 C 24.570313 13.734375 24.300781 13.65625 24.03125 13.6875 C 23.757813 13.726563 23.511719 13.875 23.351563 14.097656 C 23.191406 14.324219 23.132813 14.605469 23.1875 14.875 C 23.421875 16.007813 23.289063 16.769531 22.96875 17.46875 C 22.648438 18.167969 22.09375 18.808594 21.4375 19.53125 C 20.125 20.972656 18.375 22.808594 18.375 25.875 C 18.375 26.140625 18.390625 26.984375 18.6875 28.03125 C 18.046875 28.101563 17.457031 28.367188 17 28.78125 C 16.46875 28.300781 15.765625 28 15 28 L 14.9375 28 C 13.558594 26.089844 13.40625 24.890625 13.40625 23.28125 C 13.40625 19.742188 15.222656 19.589844 16.15625 17.53125 C 16.625 16.488281 16.589844 15.324219 16.34375 14.25 C 16.214844 13.679688 15.898438 13.25 15.65625 12.75 C 16.28125 12.65625 16.832031 12.746094 17.4375 12.96875 C 17.882813 13.132813 18.34375 13.339844 18.9375 13.4375 C 19.53125 13.535156 20.296875 13.445313 20.9375 13.03125 C 22.164063 12.238281 22.84375 10.632813 22.96875 8.46875 C 23.066406 6.78125 22.566406 4.664063 21.625 2.40625 Z M 25.03125 17.34375 C 25.039063 17.367188 25.054688 17.382813 25.0625 17.40625 C 25.300781 18.246094 25.265625 19.542969 24.125 21.78125 C 24.113281 21.78125 24.105469 21.78125 24.09375 21.78125 C 23.628906 22.703125 23.730469 23.714844 24.09375 24.625 C 24.457031 25.535156 25.285156 26.5 26.5 26.5 C 27.730469 26.5 28.746094 25.695313 29.21875 24.6875 C 29.34375 24.421875 29.371094 24.105469 29.4375 23.8125 C 29.726563 24.214844 29.945313 24.648438 30.0625 25.09375 C 30.285156 25.941406 30.195313 26.914063 29.8125 28 L 20.8125 28 C 20.398438 26.972656 20.375 26.199219 20.375 25.875 C 20.375 23.53125 21.554688 22.359375 22.90625 20.875 C 23.582031 20.132813 24.304688 19.324219 24.78125 18.28125 C 24.910156 17.996094 24.949219 17.664063 25.03125 17.34375 Z M 3 30 L 15 30 C 15.566406 30 16 30.433594 16 31 L 16 37 C 16 37.566406 15.566406 38 15 38 L 3 38 C 2.433594 38 2 37.566406 2 37 L 2 31 C 2 30.433594 2.433594 30 3 30 Z M 19 30 L 37.125 30 C 37.316406 30.058594 37.527344 30.058594 37.71875 30 L 47 30 C 47.566406 30 48 30.433594 48 31 L 48 37 C 48 37.566406 47.566406 38 47 38 L 19 38 C 18.433594 38 18 37.566406 18 37 L 18 31 C 18 30.433594 18.433594 30 19 30 Z M 3 40 L 31 40 C 31.566406 40 32 40.433594 32 41 L 32 47 C 32 47.566406 31.566406 48 31 48 L 3 48 C 2.433594 48 2 47.566406 2 47 L 2 41 C 2 40.433594 2.433594 40 3 40 Z M 35 40 L 47 40 C 47.566406 40 48 40.433594 48 41 L 48 47 C 48 47.566406 47.566406 48 47 48 L 35 48 C 34.433594 48 34 47.566406 34 47 L 34 41 C 34 40.433594 34.433594 40 35 40 Z"/></svg>
